icons/tools-16.svg

<svg xmlns="http://www.w3.org/2000/svg" width="16" height="16" viewBox="0 0 16 16"><path d="M5.433 2.304A4.492 4.492 0 003.5 6c0 1.598.832 3.002 2.09 3.802.518.328.929.923.902 1.64v.008l-.164 3.337a.75.75 0 11-1.498-.073l.163-3.33c.002-.085-.05-.216-.207-.316A5.996 5.996 0 012 6a5.993 5.993 0 012.567-4.92 1.482 1.482 0 011.673-.04c.462.296.76.827.76 1.423v2.82c0 .082.041.16.11.206l.75.51a.25.25 0 00.28 0l.75-.51A.249.249 0 009 5.282V2.463c0-.596.298-1.127.76-1.423a1.482 1.482 0 011.673.04A5.993 5.993 0 0114 6a5.996 5.996 0 01-2.786 5.068c-.157.1-.209.23-.207.315l.163 3.33a.752.752 0 01-1.094.714.75.75 0 01-.404-.64l-.164-3.345c-.027-.717.384-1.312.902-1.64A4.495 4.495 0 0012.5 6a4.492 4.492 0 00-1.933-3.696c-.024.017-.067.067-.067.16v2.818a1.75 1.75 0 01-.767 1.448l-.75.51a1.75 1.75 0 01-1.966 0l-.75-.51A1.75 1.75 0 015.5 5.282V2.463c0-.092-.043-.142-.067-.159z"/></svg>

<svg xmlns="http://www.w3.org/2000/svg" width="16" height="16" viewBox="0 0 16 16">
  <defs/>
  <path d="M5.433,2.304 C4.221,3.144 3.499,4.525 3.5,6 C3.5,7.598 4.332,9.002 5.59,9.802 C6.108,10.13 6.519,10.725 6.492,11.442 L6.492,11.45 L6.328,14.787 C6.319,15.058 6.165,15.303 5.925,15.428 C5.685,15.554 5.396,15.54 5.169,15.392 C4.942,15.243 4.812,14.984 4.83,14.714 L4.993,11.384 C4.995,11.299 4.943,11.168 4.786,11.068 C3.05,9.968 1.999,8.055 2,6 C1.999,4.039 2.958,2.201 4.567,1.08 C5.063,0.723 5.727,0.707 6.24,1.04 C6.702,1.336 7,1.867 7,2.463 L7,5.283 C7,5.365 7.041,5.443 7.11,5.489 L7.86,5.999 C7.945,6.056 8.055,6.056 8.14,5.999 L8.89,5.489 C8.959,5.443 9,5.365 9,5.282 L9,2.463 C9,1.867 9.298,1.336 9.76,1.04 C10.273,0.707 10.937,0.723 11.433,1.08 C13.042,2.201 14.001,4.039 14,6 C14.001,8.055 12.95,9.968 11.214,11.068 C11.057,11.168 11.005,11.298 11.007,11.383 L11.17,14.713 C11.187,14.983 11.058,15.242 10.831,15.39 C10.605,15.537 10.316,15.552 10.076,15.427 C9.836,15.302 9.681,15.058 9.672,14.787 L9.508,11.442 C9.481,10.725 9.892,10.13 10.41,9.802 C11.713,8.977 12.501,7.542 12.5,6 C12.501,4.525 11.779,3.144 10.567,2.304 C10.543,2.321 10.5,2.371 10.5,2.464 L10.5,5.282 C10.5,5.862 10.213,6.404 9.733,6.73 L8.983,7.24 C8.39,7.643 7.61,7.643 7.017,7.24 L6.267,6.73 C5.787,6.404 5.5,5.862 5.5,5.282 L5.5,2.463 C5.5,2.371 5.457,2.321 5.433,2.304 Z"/>
</svg>
